X: 475
T: Clinch Mountain Backstep
C:Arr. Roland White
B: jims roots
B: ralph
M:4/4
L:1/8
Q: 1/4=100
K:Am
V:1 
%Q:504
x6 aa |: "A"a2 g2 e2 g2 | ed c2 A2 eg | a2 g2 e2 d2 | "E"deee e2 eg |
"A"a2 g2 e2 eg | ed c2 A2 cd | "E"e2 d2 cA d2 |[1 G"A"AAA A2 eg :| [2 G"A"AAA A2 E2 ||
|: "A"AAAA A2 cd | e2 d2 cA G2 | AAAA A2 AA | c2 d2 "E"eeee | [M:2/4]e2 ag |
 "A"a2 g2 e2 eg | ed c2 A2 cd | "E"e2 d2 cA d2 |[1 A"A"A A2 A2 E2 :| [2 A"A"A A2 A4||
% abcbook-tune_id 6298c245a24ab8695df86ed6


% abcbook-boost 0
% abcbook-tablature 
% abcbook-transpose 
% abcbook-lastupdated 1665486191812
% abcbook-soundfonts 
% abcbook-repeats 1


